SVG_Azure_Grouped/Compute/Virtual Machine Configuration Management .svg

<?xml version="1.0" encoding="UTF-8" standalone="no"?>
<!-- Generated by Microsoft Visio, SVG Export Virtual Machine Configuration Management .svg Page-1 -->

<svg
   xmlns:dc="http://purl.org/dc/elements/1.1/"
   xmlns:cc="http://creativecommons.org/ns#"
   xmlns:rdf="http://www.w3.org/1999/02/22-rdf-syntax-ns#"
   xmlns:svg="http://www.w3.org/2000/svg"
   xmlns="http://www.w3.org/2000/svg"
   xmlns:sodipodi="http://sodipodi.sourceforge.net/DTD/sodipodi-0.dtd"
   xmlns:inkscape="http://www.inkscape.org/namespaces/inkscape"
   width="0.70860749in"
   height="0.78735709in"
   viewBox="0 0 51.019792 56.689998"
   xml:space="preserve"
   class="st5"
   version="1.1"
   id="svg34"
   sodipodi:docname="Virtual Machine Configuration Management .svg"
   style="font-size:12px;overflow:visible;color-interpolation-filters:sRGB;fill:none;fill-rule:evenodd;stroke-linecap:square;stroke-miterlimit:3"
   inkscape:version="0.92.5 (2060ec1f9f, 2020-04-08)"><metadata
   id="metadata40"><rdf:RDF><cc:Work
       rdf:about=""><dc:format>image/svg+xml</dc:format><dc:type
         rdf:resource="http://purl.org/dc/dcmitype/StillImage" /></cc:Work></rdf:RDF></metadata><defs
   id="defs38" /><sodipodi:namedview
   pagecolor="#ffffff"
   bordercolor="#666666"
   borderopacity="1"
   objecttolerance="10"
   gridtolerance="10"
   guidetolerance="10"
   inkscape:pageopacity="0"
   inkscape:pageshadow="2"
   inkscape:window-width="640"
   inkscape:window-height="480"
   id="namedview36"
   showgrid="false"
   inkscape:zoom="1.7193066"
   inkscape:cx="34.01556"
   inkscape:cy="23.279613"
   inkscape:window-x="0"
   inkscape:window-y="0"
   inkscape:window-maximized="0"
   inkscape:current-layer="svg34" />
	<style
   type="text/css"
   id="style2">
	<![CDATA[
		.st1 {fill:#a0a1a2;stroke:none;stroke-linecap:butt;stroke-width:12.24}
		.st2 {fill:#3999c6;stroke:none;stroke-linecap:butt;stroke-width:12.24}
		.st3 {fill:#ffffff;stroke:none;stroke-linecap:butt;stroke-width:12.24}
		.st4 {fill:#000000;fill-opacity:0.2;stroke:none;stroke-linecap:butt;stroke-width:12.24}
		.st5 {fill:none;fill-rule:evenodd;font-size:12px;overflow:visible;stroke-linecap:square;stroke-miterlimit:3}
	]]>
	</style>

	<g
   id="g32"
   transform="translate(-12.240154,-12.2443)">
		<title
   id="title4">Page-1</title>
		<g
   id="group11089-1"
   transform="translate(12.24,-34.0157)">
			<title
   id="title6">Virtual Machine Configuration Management .11089</title>
			<g
   id="group11090-2">
				<title
   id="title8">Sheet.11090</title>
				<g
   id="shape11091-3">
					<title
   id="title10">Sheet.11091</title>
					<path
   d="M 40.82,46.26 H 0 v 56.69 H 51.02 V 56.33 Z"
   class="st1"
   id="path12"
   inkscape:connector-curvature="0"
   style="fill:#a0a1a2;stroke:none;stroke-width:12.23999977;stroke-linecap:butt" />
				</g>
				<g
   id="shape11092-5"
   transform="translate(2.55118,-2.51969)">
					<title
   id="title15">Sheet.11092</title>
					<path
   d="M 36.99,51.3 H 0 v 51.65 H 45.92 V 60.11 h -8.93 z"
   class="st2"
   id="path17"
   inkscape:connector-curvature="0"
   style="fill:#3999c6;stroke:none;stroke-width:12.23999977;stroke-linecap:butt" />
				</g>
				<g
   id="shape11093-7"
   transform="translate(7.35123,-8.69039)">
					<title
   id="title20">Sheet.11093</title>
					<path
   d="m 16.88,72.58 c 0,-0.7 0.59,-1.26 1.32,-1.26 h 15.23 c 0.73,0 1.31,0.56 1.31,1.26 0,0.7 -0.58,1.26 -1.31,1.26 H 18.2 c -0.73,0 -1.32,-0.56 -1.32,-1.26 z m 0,12.6 c 0,-0.7 0.59,-1.26 1.32,-1.26 h 15.23 c 0.73,0 1.31,0.56 1.31,1.26 0,0.7 -0.58,1.26 -1.31,1.26 H 18.2 c -0.73,0 -1.32,-0.56 -1.32,-1.26 z M 0.62,71.92 0.13,71.4 C 0,71.26 0,71.04 0.15,70.91 l 1.41,-1.29 a 0.344409,0.340157 0 0 1 0.491102,0.02016 L 5.95,73.76 l 6.7,-8.48 a 0.345685,0.341417 0 0 1 0.491102,-0.05795 L 14.67,66.39 a 0.334205,0.330079 0 0 1 0.133937,0.225512 0.339307,0.335118 0 0 1 -0.07526,0.251969 L 6.12,77.75 Z m 0,12.6 L 0.13,84 C 0,83.86 0,83.64 0.15,83.51 l 1.41,-1.3 a 0.344409,0.340157 0 0 1 0.491102,0.02016 L 5.95,86.36 l 6.7,-8.48 a 0.345685,0.341417 0 0 1 0.491102,-0.05795 L 14.67,78.99 a 0.334205,0.330079 0 0 1 0.133937,0.225512 0.339307,0.335118 0 0 1 -0.07526,0.251969 L 6.12,90.35 Z m 16.26,13.26 c 0,-0.7 0.59,-1.26 1.32,-1.26 h 15.23 c 0.73,0 1.31,0.56 1.31,1.26 0,0.7 -0.58,1.26 -1.31,1.26 H 18.2 c -0.73,0 -1.32,-0.56 -1.32,-1.26 z M 0.62,97.12 0.13,96.6 C 0,96.46 0,96.24 0.15,96.11 l 1.41,-1.3 a 0.344409,0.340157 0 0 1 0.491102,0.02016 L 5.95,98.96 l 6.7,-8.48 a 0.345685,0.341417 0 0 1 0.491102,-0.05795 L 14.67,91.59 a 0.334205,0.330079 0 0 1 0.133937,0.225512 0.339307,0.335118 0 0 1 -0.07526,0.251969 L 6.12,102.95 Z"
   class="st3"
   id="path22"
   inkscape:connector-curvature="0"
   style="fill:#ffffff;stroke:none;stroke-width:12.23999977;stroke-linecap:butt" />
				</g>
				<g
   id="shape11094-9"
   transform="translate(39.5433,-44.0945)">
					<title
   id="title25">Sheet.11094</title>
					<rect
   x="0"
   y="101.689"
   width="8.9291296"
   height="1.25984"
   class="st4"
   id="rect27"
   style="fill:#000000;fill-opacity:0.2;stroke:none;stroke-width:12.23999977;stroke-linecap:butt" />
				</g>
			</g>
		</g>
	</g>
</svg>

<?xml version="1.0" encoding="UTF-8" standalone="no"?>
<!DOCTYPE svg PUBLIC "-//W3C//DTD SVG 1.1//EN" "http://www.w3.org/Graphics/SVG/1.1/DTD/svg11.dtd">
<!-- Generated by Microsoft Visio, SVG Export Virtual Machine Configuration Management .svg Page-1 -->
<svg xmlns="http://www.w3.org/2000/svg" xmlns:xlink="http://www.w3.org/1999/xlink" xmlns:ev="http://www.w3.org/2001/xml-events"
		width="1.04866in" height="1.42984in" viewBox="0 0 75.5036 102.949" xml:space="preserve" color-interpolation-filters="sRGB"
		class="st5">
	<style type="text/css">
	<![CDATA[
		.st1 {fill:#a0a1a2;stroke:none;stroke-linecap:butt;stroke-width:12.24}
		.st2 {fill:#3999c6;stroke:none;stroke-linecap:butt;stroke-width:12.24}
		.st3 {fill:#ffffff;stroke:none;stroke-linecap:butt;stroke-width:12.24}
		.st4 {fill:#000000;fill-opacity:0.2;stroke:none;stroke-linecap:butt;stroke-width:12.24}
		.st5 {fill:none;fill-rule:evenodd;font-size:12px;overflow:visible;stroke-linecap:square;stroke-miterlimit:3}
	]]>
	</style>

	<g>
		<title>Page-1</title>
		<g id="group10851-1" transform="translate(12.24,-34.0157)">
			<title>Virtual Machine Configuration Management .10851</title>
			<g id="group10852-2">
				<title>Sheet.10852</title>
				<g id="shape10853-3">
					<title>Sheet.10853</title>
					<path d="M40.82 46.26 L0 46.26 L0 102.95 L51.02 102.95 L51.02 56.33 L40.82 46.26 Z" class="st1"/>
				</g>
				<g id="shape10854-5" transform="translate(2.55118,-2.51969)">
					<title>Sheet.10854</title>
					<path d="M36.99 51.3 L0 51.3 L0 102.95 L45.92 102.95 L45.92 60.11 L36.99 60.11 L36.99 51.3 Z" class="st2"/>
				</g>
				<g id="shape10855-7" transform="translate(7.35123,-8.69039)">
					<title>Sheet.10855</title>
					<path d="M16.88 72.58 C16.88 71.88 17.47 71.32 18.2 71.32 L33.43 71.32 C34.16 71.32 34.74 71.88 34.74 72.58 C34.74
								 73.28 34.16 73.84 33.43 73.84 L18.2 73.84 C17.47 73.84 16.88 73.28 16.88 72.58 ZM16.88 85.18 C16.88
								 84.48 17.47 83.92 18.2 83.92 L33.43 83.92 C34.16 83.92 34.74 84.48 34.74 85.18 C34.74 85.88 34.16
								 86.44 33.43 86.44 L18.2 86.44 C17.47 86.44 16.88 85.88 16.88 85.18 ZM0.62 71.92 L0.13 71.4 C0 71.26
								 0 71.04 0.15 70.91 L1.56 69.62 a0.344409 0.340157 0 0 1 0.491102 0.0201575 L5.95 73.76 L12.65 65.28
								 a0.345685 0.341417 0 0 1 0.491102 -0.0579528 L14.67 66.39 a0.334205 0.330079 0 0 1 0.133937 0.225512
								 a0.339307 0.335118 0 0 1 -0.0752598 0.251969 L6.12 77.75 L0.62 71.92 ZM0.62 84.52 L0.13 84 C0 83.86
								 0 83.64 0.15 83.51 L1.56 82.21 a0.344409 0.340157 0 0 1 0.491102 0.0201575 L5.95 86.36 L12.65 77.88
								 a0.345685 0.341417 0 0 1 0.491102 -0.0579528 L14.67 78.99 a0.334205 0.330079 0 0 1 0.133937 0.225512
								 a0.339307 0.335118 0 0 1 -0.0752598 0.251969 L6.12 90.35 L0.62 84.52 ZM16.88 97.78 C16.88 97.08
								 17.47 96.52 18.2 96.52 L33.43 96.52 C34.16 96.52 34.74 97.08 34.74 97.78 C34.74 98.48 34.16 99.04
								 33.43 99.04 L18.2 99.04 C17.47 99.04 16.88 98.48 16.88 97.78 ZM0.62 97.12 L0.13 96.6 C0 96.46 0
								 96.24 0.15 96.11 L1.56 94.81 a0.344409 0.340157 0 0 1 0.491102 0.0201575 L5.95 98.96 L12.65 90.48
								 a0.345685 0.341417 0 0 1 0.491102 -0.0579528 L14.67 91.59 a0.334205 0.330079 0 0 1 0.133937 0.225512
								 a0.339307 0.335118 0 0 1 -0.0752598 0.251969 L6.12 102.95 L0.62 97.12 Z" class="st3"/>
				</g>
				<g id="shape10856-9" transform="translate(39.5433,-44.0945)">
					<title>Sheet.10856</title>
					<rect x="0" y="101.689" width="8.92913" height="1.25984" class="st4"/>
				</g>
			</g>
		</g>
	</g>
</svg>
